X:1
T:If all be true that I do think
T:Henry Purcell
%%score [ 1 2 3 ]
L:1/8
Q:1/4=54
M:4/4
K:F
V:1 treble nm="I"
V:2 treble nm="II"
V:3 treble nm="III"
V:1
 A |: A2 d2 ^c3 c | d2 A2 c3 B | A2 D2 G2 ^C C | D2 B,2 A,2 D2 | D3 ^C D4 :| %6
w: If|all be true that|I do think, There|are Five Rea- sons, there|are Five Rea- sons|we should Drink:|
V:2
 z |: z2 D2 A,4 | z2 F2 C4 | z c A F B2 z2 | z A d c ^c2 (dA) | F3 (E/D/) D4 :| %6
w: |Good wine,|a Friend|or be- ing Dry,|Or least, we should be _|by and _ by,|
V:3
 z |: z4 z E A G | F E F D z E A G | F E F D z E A G | F E F D A2 F D | A,3 A, D3 x :| %6
w: |Or a- ny|o- ther Rea- son, or a- ny|o- ther Rea- son; Or a- ny|o- ther Rea- son why, a- ny|Rea- son why.|

